assets/green-energy-color/GreenEnergyColor8.svg

<svg xmlns="http://www.w3.org/2000/svg" data-name="Layer 1" viewBox="0 0 128 128"><path fill="#7ece29" d="M102.911 53.047h7.989a3.507 3.507 0 013.5 3.5v14.908a3.506 3.506 0 01-3.5 3.5h-7.993"/><path fill="#7ece29" d="M21.794 38.321h72.922a8.2 8.2 0 018.2 8.2v34.964a8.193 8.193 0 01-8.193 8.193H21.794a8.2 8.2 0 01-8.2-8.2V46.517a8.2 8.2 0 018.2-8.196z"/><path fill="#469612" d="M61.678 44.4h14.477v39.063H61.678zM41.464 44.468h14.478v39.064H41.464zM21.25 44.331h14.478v39.063H21.25z"/><path fill="#001b01" d="M110.9 51.408h-6.35v-4.891a9.844 9.844 0 00-9.832-9.834H21.794a9.845 9.845 0 00-9.834 9.834v34.966a9.845 9.845 0 009.834 9.834h72.924a9.844 9.844 0 009.832-9.834V76.59h6.35a5.141 5.141 0 005.135-5.135V56.543a5.141 5.141 0 00-5.135-5.135zm-9.632 30.076a6.562 6.562 0 01-6.555 6.556H21.794a6.563 6.563 0 01-6.556-6.556V46.517a6.563 6.563 0 016.556-6.556h72.924a6.562 6.562 0 016.555 6.556zm11.489-10.028a1.859 1.859 0 01-1.857 1.857h-6.35V54.686h6.35a1.859 1.859 0 011.857 1.857z"/><path fill="#001b01" d="M76.155 42.762H61.678a1.639 1.639 0 00-1.639 1.638v39.063a1.639 1.639 0 001.639 1.637h14.477a1.639 1.639 0 001.639-1.639V44.4a1.639 1.639 0 00-1.639-1.638zm-1.638 39.062h-11.2V46.04h11.2zM55.942 42.829H41.464a1.638 1.638 0 00-1.639 1.639v39.064a1.638 1.638 0 001.639 1.639h14.478a1.639 1.639 0 001.639-1.639V44.468a1.638 1.638 0 00-1.639-1.639zM54.3 81.893H43.1V46.107h11.2zM35.728 42.693H21.25a1.638 1.638 0 00-1.639 1.639v39.062a1.638 1.638 0 001.639 1.639h14.478a1.639 1.639 0 001.639-1.639V44.331a1.639 1.639 0 00-1.639-1.638zm-1.64 39.063h-11.2V45.971h11.2z"/></svg>

<svg id="Layer_1" data-name="Layer 1" xmlns="http://www.w3.org/2000/svg" viewBox="0 0 128 128"><title>Artboard 2 copy 9</title><path d="M102.911,53.047H110.9a3.507,3.507,0,0,1,3.5,3.5V71.455a3.506,3.506,0,0,1-3.5,3.5h-7.993" style="fill:#7ece29"/><path d="M21.794,38.321H94.716a8.2,8.2,0,0,1,8.2,8.2V81.485a8.193,8.193,0,0,1-8.193,8.193H21.794a8.2,8.2,0,0,1-8.2-8.2V46.517A8.2,8.2,0,0,1,21.794,38.321Z" style="fill:#7ece29"/><rect x="61.678" y="44.4" width="14.477" height="39.063" style="fill:#469612"/><rect x="41.464" y="44.468" width="14.478" height="39.064" style="fill:#469612"/><rect x="21.25" y="44.331" width="14.478" height="39.063" style="fill:#469612"/><path d="M110.9,51.408H104.55V46.517a9.844,9.844,0,0,0-9.832-9.834H21.794a9.845,9.845,0,0,0-9.834,9.834V81.483a9.845,9.845,0,0,0,9.834,9.834H94.718a9.844,9.844,0,0,0,9.832-9.834V76.59H110.9a5.141,5.141,0,0,0,5.135-5.135V56.543A5.141,5.141,0,0,0,110.9,51.408Zm-9.632,30.076a6.562,6.562,0,0,1-6.555,6.556H21.794a6.563,6.563,0,0,1-6.556-6.556V46.517a6.563,6.563,0,0,1,6.556-6.556H94.718a6.562,6.562,0,0,1,6.555,6.556Zm11.489-10.028a1.859,1.859,0,0,1-1.857,1.857H104.55V54.686H110.9a1.859,1.859,0,0,1,1.857,1.857Z" style="fill:#001b01"/><path d="M76.155,42.762H61.678A1.639,1.639,0,0,0,60.039,44.4V83.463A1.639,1.639,0,0,0,61.678,85.1H76.155a1.639,1.639,0,0,0,1.639-1.639V44.4A1.639,1.639,0,0,0,76.155,42.762ZM74.517,81.824h-11.2V46.04h11.2Z" style="fill:#001b01"/><path d="M55.942,42.829H41.464a1.638,1.638,0,0,0-1.639,1.639V83.532a1.638,1.638,0,0,0,1.639,1.639H55.942a1.639,1.639,0,0,0,1.639-1.639V44.468A1.638,1.638,0,0,0,55.942,42.829ZM54.3,81.893H43.1V46.107H54.3Z" style="fill:#001b01"/><path d="M35.728,42.693H21.25a1.638,1.638,0,0,0-1.639,1.639V83.394a1.638,1.638,0,0,0,1.639,1.639H35.728a1.639,1.639,0,0,0,1.639-1.639V44.331A1.639,1.639,0,0,0,35.728,42.693ZM34.088,81.756h-11.2V45.971h11.2Z" style="fill:#001b01"/></svg>
